client/src/assets/delete.svg

<svg width="13" height="13" viewBox="0 0 13 13" fill="none" xmlns="http://www.w3.org/2000/svg">
<path d="M7.88816 2.57445C7.86482 2.57465 7.84167 2.57038 7.82004 2.56189C7.79842 2.55339 7.77875 2.54083 7.76217 2.52493C7.74559 2.50904 7.73243 2.49012 7.72345 2.46928C7.71447 2.44843 7.70985 2.42608 7.70985 2.40349V1.50795H5.27834V2.40663C5.27412 2.44935 5.25359 2.48901 5.22077 2.51787C5.18795 2.54673 5.14519 2.56272 5.10084 2.56272C5.05649 2.56272 5.01373 2.54673 4.98091 2.51787C4.94809 2.48901 4.92756 2.44935 4.92334 2.40663V1.33543C4.92333 1.31237 4.9281 1.28955 4.93736 1.2683C4.94663 1.24706 4.9602 1.22783 4.97727 1.21174C4.99435 1.19566 5.01458 1.18305 5.03678 1.17466C5.05898 1.16627 5.08269 1.16228 5.10651 1.16291H7.88816C7.9115 1.16291 7.93461 1.16738 7.95615 1.17607C7.97769 1.18476 7.99724 1.19749 8.01367 1.21353C8.0301 1.22957 8.04308 1.2486 8.05187 1.26952C8.06065 1.29045 8.06506 1.31285 8.06485 1.33543V2.40663C8.064 2.45142 8.04501 2.4941 8.01196 2.52549C7.97892 2.55687 7.93446 2.57445 7.88816 2.57445Z" fill="#E26453" stroke="#E26453" stroke-width="0.4"/>
<path d="M10.5013 11.8373H2.4935C2.44731 11.8373 2.40291 11.82 2.36965 11.789C2.33639 11.758 2.31687 11.7157 2.31519 11.671V2.83946C2.31519 2.79371 2.33397 2.74983 2.36741 2.71747C2.40085 2.68512 2.44621 2.66694 2.4935 2.66694C2.54079 2.66694 2.58614 2.68512 2.61958 2.71747C2.65302 2.74983 2.67181 2.79371 2.67181 2.83946V11.4922H10.3229V2.83946C10.3206 2.81553 10.3234 2.79139 10.3313 2.76857C10.3391 2.74576 10.3518 2.72479 10.3685 2.707C10.3852 2.68921 10.4056 2.67499 10.4283 2.66526C10.451 2.65554 10.4756 2.65051 10.5004 2.65051C10.5253 2.65051 10.5499 2.65554 10.5726 2.66526C10.5953 2.67499 10.6157 2.68921 10.6324 2.707C10.6491 2.72479 10.6618 2.74576 10.6696 2.76857C10.6775 2.79139 10.6803 2.81553 10.6779 2.83946V11.671C10.6767 11.7155 10.6575 11.7578 10.6245 11.7889C10.5915 11.8199 10.5473 11.8373 10.5013 11.8373Z" fill="#E26453" stroke="#E26453" stroke-width="0.4"/>
<path d="M11.6569 2.83156H1.33763C1.31289 2.83385 1.28793 2.83112 1.26436 2.82353C1.24078 2.81594 1.2191 2.80366 1.20071 2.78749C1.18233 2.77132 1.16763 2.75161 1.15758 2.72963C1.14753 2.70764 1.14233 2.68387 1.14233 2.65983C1.14233 2.63579 1.14753 2.61201 1.15758 2.59002C1.16763 2.56804 1.18233 2.54833 1.20071 2.53216C1.2191 2.51599 1.24078 2.50371 1.26436 2.49613C1.28793 2.48854 1.31289 2.4858 1.33763 2.48809H11.6569C11.7011 2.49218 11.7421 2.51203 11.7719 2.54379C11.8017 2.57554 11.8183 2.61692 11.8183 2.65983C11.8183 2.70274 11.8017 2.74411 11.7719 2.77586C11.7421 2.80762 11.7011 2.82748 11.6569 2.83156Z" fill="#E26453" stroke="#E26453" stroke-width="0.4"/>
<path d="M4.40121 10.1935C4.35392 10.1935 4.30857 10.1754 4.27513 10.143C4.24169 10.1107 4.2229 10.0668 4.2229 10.021V4.48307C4.2229 4.43731 4.24169 4.39343 4.27513 4.36108C4.30857 4.32872 4.35392 4.31055 4.40121 4.31055C4.4485 4.31055 4.49386 4.32872 4.5273 4.36108C4.56074 4.39343 4.57952 4.43731 4.57952 4.48307V10.021C4.57952 10.0668 4.56074 10.1107 4.5273 10.143C4.49386 10.1754 4.4485 10.1935 4.40121 10.1935Z" fill="#E26453" stroke="#E26453" stroke-width="0.4"/>
<path d="M6.4974 10.1936C6.45011 10.1936 6.40476 10.1754 6.37132 10.1431C6.33788 10.1107 6.31909 10.0668 6.31909 10.0211V4.48312C6.32332 4.4404 6.34384 4.40074 6.37666 4.37188C6.40948 4.34302 6.45224 4.32703 6.49659 4.32703C6.54094 4.32703 6.5837 4.34302 6.61652 4.37188C6.64934 4.40074 6.66987 4.4404 6.67409 4.48312V10.0211C6.67431 10.0436 6.66989 10.066 6.66111 10.087C6.65233 10.1079 6.63935 10.1269 6.62292 10.143C6.60649 10.159 6.58694 10.1717 6.5654 10.1804C6.54385 10.1891 6.52074 10.1936 6.4974 10.1936Z" fill="#E26453" stroke="#E26453" stroke-width="0.4"/>
<path d="M8.5932 10.1936C8.56986 10.1936 8.54675 10.1891 8.52521 10.1804C8.50366 10.1717 8.48411 10.159 8.46769 10.143C8.45126 10.1269 8.43828 10.1079 8.42949 10.087C8.42071 10.066 8.4163 10.0436 8.41651 10.0211V4.48312C8.42074 4.4404 8.44126 4.40074 8.47408 4.37188C8.5069 4.34302 8.54966 4.32703 8.59401 4.32703C8.63836 4.32703 8.68112 4.34302 8.71394 4.37188C8.74676 4.40074 8.76729 4.4404 8.77151 4.48312V10.0211C8.77151 10.0668 8.75273 10.1107 8.71929 10.1431C8.68585 10.1754 8.64049 10.1936 8.5932 10.1936Z" fill="#E26453" stroke="#E26453" stroke-width="0.4"/>
</svg>

<svg width="13" height="13" fill="none" xmlns="http://www.w3.org/2000/svg"><path d="M7.888 2.574a.182.182 0 01-.126-.05.17.17 0 01-.052-.12v-.896H5.278v.899a.17.17 0 01-.057.11.182.182 0 01-.24 0 .17.17 0 01-.058-.11V1.335a.168.168 0 01.054-.123.18.18 0 01.13-.05h2.781a.182.182 0 01.126.052.17.17 0 01.05.121v1.072c0 .044-.019.087-.052.118a.18.18 0 01-.124.05zM10.501 11.837H2.494a.182.182 0 01-.124-.048.17.17 0 01-.055-.118V2.839a.17.17 0 01.052-.122.181.181 0 01.253 0 .17.17 0 01.052.122v8.653h7.65V2.84a.167.167 0 01.046-.132.178.178 0 01.132-.056.184.184 0 01.132.056.17.17 0 01.046.132v8.832a.168.168 0 01-.054.118.18.18 0 01-.123.048z" fill="#E26453" stroke="#E26453" stroke-width=".4"/><path d="M11.657 2.832H1.337a.184.184 0 01-.136-.045.173.173 0 01-.059-.127.168.168 0 01.059-.128.18.18 0 01.137-.044h10.319a.18.18 0 01.115.056.17.17 0 010 .232.18.18 0 01-.115.056zM4.401 10.194a.181.181 0 01-.126-.051.17.17 0 01-.052-.122V4.483a.17.17 0 01.052-.122.181.181 0 01.252 0 .17.17 0 01.053.122v5.538a.17.17 0 01-.053.122.181.181 0 01-.126.05zM6.497 10.194a.182.182 0 01-.126-.05.17.17 0 01-.052-.123V4.483a.17.17 0 01.058-.111.182.182 0 01.24 0 .17.17 0 01.057.111v5.538a.167.167 0 01-.051.122.178.178 0 01-.126.05zM8.593 10.194a.182.182 0 01-.125-.051.172.172 0 01-.051-.122V4.483a.17.17 0 01.057-.111.182.182 0 01.24 0 .17.17 0 01.058.111v5.538a.17.17 0 01-.053.122.182.182 0 01-.126.05z" fill="#E26453" stroke="#E26453" stroke-width=".4"/></svg>
